src/assets/icons/default/IconFalsePositive.svg

<svg width="20" height="20" viewBox="0 0 23 23" fill="none" xmlns="http://www.w3.org/2000/svg">
<circle cx="11.5" cy="11.5" r="10.5" stroke="currentColor" stroke-width="2"/>
<path d="M9.46636 19V9.00799C9.46636 7.79006 9.82521 6.82068 10.5429 6.09987C11.273 5.36662 12.3125 5 13.6613 5C14.0944 5 14.5213 5.0435 14.942 5.13049C15.3627 5.21749 15.7154 5.34798 16 5.52197L15.1276 8.01997C14.9791 7.93298 14.8121 7.86463 14.6265 7.81491C14.4408 7.75277 14.2552 7.7217 14.0696 7.7217C13.6984 7.7217 13.4076 7.83356 13.1972 8.05726C12.9992 8.26853 12.9002 8.59787 12.9002 9.04527V9.7723L12.993 11.245V19H9.46636ZM8 11.9161V9.26897H15.2947V11.9161H8Z" fill="currentColor"/>
</svg>

<svg xmlns="http://www.w3.org/2000/svg" width="20" height="20" fill="none" viewBox="0 0 23 23">
  <circle cx="11.5" cy="11.5" r="10.5" stroke="currentcolor" stroke-width="2"/>
  <path fill="currentcolor" d="M9.47 19V9q0-1.82 1.07-2.9Q11.64 5 13.66 5q.65 0 1.28.13t1.06.4l-.87 2.49a2 2 0 0 0-.5-.2q-.28-.1-.56-.1-.56 0-.87.34-.3.3-.3.99v.72l.1 1.47V19zM8 11.92V9.27h7.3v2.65z"/>
</svg>
